_gulp_pug/dist/images/icon/icon-features-3.svg

<svg width="40" height="40" viewBox="0 0 40 40" fill="none" xmlns="http://www.w3.org/2000/svg">
<path d="M31.6667 5H8.33333C6.48333 5 5 6.5 5 8.33333V31.6667C5 33.5 6.48333 35 8.33333 35H31.6667C33.5 35 35 33.5 35 31.6667V8.33333C35 6.5 33.5 5 31.6667 5ZM18.3333 25H15.8333V21.6667H12.5V25H10V15H12.5V19.1667H15.8333V15H18.3333V25ZM21.6667 15H28.3333C29.25 15 30 15.75 30 16.6667V23.3333C30 24.25 29.25 25 28.3333 25H21.6667V15ZM24.1667 22.5H27.5V17.5H24.1667V22.5Z" fill="white"/>
</svg>

<svg xmlns="http://www.w3.org/2000/svg" width="40" height="40" fill="none" viewBox="0 0 40 40"><path fill="#fff" d="M31.7 5H8.3A3.3 3.3 0 0 0 5 8.3v23.4C5 33.5 6.5 35 8.3 35h23.4c1.8 0 3.3-1.5 3.3-3.3V8.3C35 6.5 33.5 5 31.7 5zM18.3 25h-2.5v-3.3h-3.3V25H10V15h2.5v4.2h3.3V15h2.5v10zm3.4-10h6.6c1 0 1.7.8 1.7 1.7v6.6c0 1-.8 1.7-1.7 1.7h-6.6V15zm2.5 7.5h3.3v-5h-3.3v5z"/></svg>
